X:237
T:Off She Goes [diddly B music]
R:jig 32
Z:P J Headford.
M:6/8
L:1/8
Q:1/4=120
R:Jig
K:D
|:A|F2A G2B|ABc d2A|F2A G2B|AFD E2D|\
F2A G2B|ABc d2e|f2d g2f|edc d2:||
|:e|faf def|gbg efg|faf def|ecA A2e|\
faf def|gbg efg|f2d g2f|edc d3:||

